X: 33438
T: Rabbit In The Field, The
R: jig
M: 6/8
K: Gmajor
d3 ~G3|~d3 cBA|BAG EDB,|EDB, ~A,3|
G,B,D G,B,D|EFG ABc|Bee dBA|1 AGF GAc:|2 AGF GAB||
d3 ~B3|def gfe|edB gdB|edB ~A3|
GBd GBd|bag e/f/ge|edB gdB|AGF GAc:|

